svg/emoticon_neutral_outline.svg

<svg xmlns="http://www.w3.org/2000/svg" viewBox="0 0 24 24"><path d="M12 2A10 10 0 0 0 2 12a10 10 0 0 0 10 10 10 10 0 0 0 10-10A10 10 0 0 0 12 2m0 18a8 8 0 0 1-8-8 8 8 0 0 1 8-8 8 8 0 0 1 8 8 8 8 0 0 1-8 8m-3.5-9A1.5 1.5 0 0 1 7 9.5 1.5 1.5 0 0 1 8.5 8 1.5 1.5 0 0 1 10 9.5 1.5 1.5 0 0 1 8.5 11M17 9.5a1.5 1.5 0 0 1-1.5 1.5A1.5 1.5 0 0 1 14 9.5 1.5 1.5 0 0 1 15.5 8 1.5 1.5 0 0 1 17 9.5M16 14v2H8v-2z"/></svg>

<?xml version="1.0" encoding="UTF-8"?><!DOCTYPE svg PUBLIC "-//W3C//DTD SVG 1.1//EN" "http://www.w3.org/Graphics/SVG/1.1/DTD/svg11.dtd"><svg xmlns="http://www.w3.org/2000/svg" xmlns:xlink="http://www.w3.org/1999/xlink" version="1.1" id="mdi-emoticon-neutral-outline" width="24" height="24" viewBox="0 0 24 24"><path d="M12,2A10,10 0 0,0 2,12A10,10 0 0,0 12,22A10,10 0 0,0 22,12A10,10 0 0,0 12,2M12,20A8,8 0 0,1 4,12A8,8 0 0,1 12,4A8,8 0 0,1 20,12A8,8 0 0,1 12,20M8.5,11A1.5,1.5 0 0,1 7,9.5A1.5,1.5 0 0,1 8.5,8A1.5,1.5 0 0,1 10,9.5A1.5,1.5 0 0,1 8.5,11M17,9.5A1.5,1.5 0 0,1 15.5,11A1.5,1.5 0 0,1 14,9.5A1.5,1.5 0 0,1 15.5,8A1.5,1.5 0 0,1 17,9.5M16,14V16H8V14H16Z" /></svg>
